svgs/light/square-arrow-left.svg

<svg xmlns="http://www.w3.org/2000/svg" viewBox="0 0 448 512"><!-- Font Awesome Pro 6.0.0-alpha2 by @fontawesome - https://fontawesome.com License - https://fontawesome.com/license (Commercial License) --><path d="M336 240H150.625L219.312 171.312C225.562 165.062 225.562 154.937 219.312 148.688S202.937 142.438 196.688 148.688L100.688 244.688C97.562 247.812 96 251.906 96 256S97.562 264.188 100.688 267.312L196.688 363.312C202.938 369.562 213.063 369.562 219.312 363.312S225.562 346.937 219.312 340.688L150.625 272H336C344.844 272 352 264.844 352 256S344.844 240 336 240ZM384 32H64C28.654 32 0 60.654 0 96V416C0 451.346 28.654 480 64 480H384C419.346 480 448 451.346 448 416V96C448 60.654 419.346 32 384 32ZM416 416C416 433.645 401.645 448 384 448H64C46.355 448 32 433.645 32 416V96C32 78.355 46.355 64 64 64H384C401.645 64 416 78.355 416 96V416Z"/></svg>

<svg xmlns="http://www.w3.org/2000/svg" viewBox="0 0 448 512"><!--! Font Awesome Pro 6.3.0 by @fontawesome - https://fontawesome.com License - https://fontawesome.com/license (Commercial License) Copyright 2023 Fonticons, Inc. --><path d="M336 240H150.6l68.69-68.69c6.25-6.25 6.25-16.38 0-22.62s-16.38-6.25-22.62 0l-96 96C97.56 247.8 96 251.9 96 256s1.562 8.184 4.688 11.31l96 96c6.25 6.25 16.38 6.25 22.62 0s6.25-16.38 0-22.62L150.6 272H336c8.844 0 16-7.154 16-15.1C352 247.2 344.8 240 336 240zM384 32H64C28.65 32 0 60.65 0 96v320c0 35.35 28.65 64 64 64h320c35.35 0 64-28.65 64-64V96C448 60.65 419.3 32 384 32zM416 416c0 17.64-14.36 32-32 32H64c-17.64 0-32-14.36-32-32V96c0-17.64 14.36-32 32-32h320c17.64 0 32 14.36 32 32V416z"/></svg>
